X: 12
T: Old French
C: R-6
C: New England
M: C|
Z: Transcribed to abc by Mary Lou Knack
R: reel
K: D
(3ABc| "D"d2cd BdAF | DFAd f2ed| "A"cdef gece| "D"defd A2 (3ABc|
       "D"d2cd BdAF | DFAd f2ed| "A"cdef gece| "D"d2f2 d2 :|
%%text Repeat part B 4 times
%%vskip 4 pt
|:\
cd| "A"efed c2A2| AEAc e2dc| "G"BGBd gfed |1 "A"cAce a2 :|2 "A"c2A2 A2 |]
%%text 1/25/02
% ---------- page 7 ----------
